svg/directions.svg

<svg xmlns="http://www.w3.org/2000/svg" viewBox="0 0 24 24"><path d="M14 14.5V12h-4v3H8v-4a1 1 0 0 1 1-1h5V7.5l3.5 3.5m4.21.29-9-9h-.01a.996.996 0 0 0-1.41 0l-9 9c-.39.39-.39 1.03 0 1.42l9 9c.39.38 1.02.39 1.42 0l9-9c.39-.39.39-1.03 0-1.42"/></svg>

<?xml version="1.0" encoding="UTF-8"?><!DOCTYPE svg PUBLIC "-//W3C//DTD SVG 1.1//EN" "http://www.w3.org/Graphics/SVG/1.1/DTD/svg11.dtd"><svg xmlns="http://www.w3.org/2000/svg" xmlns:xlink="http://www.w3.org/1999/xlink" version="1.1" id="mdi-directions" width="24" height="24" viewBox="0 0 24 24"><path d="M14,14.5V12H10V15H8V11A1,1 0 0,1 9,10H14V7.5L17.5,11M21.71,11.29L12.71,2.29H12.7C12.31,1.9 11.68,1.9 11.29,2.29L2.29,11.29C1.9,11.68 1.9,12.32 2.29,12.71L11.29,21.71C11.68,22.09 12.31,22.1 12.71,21.71L21.71,12.71C22.1,12.32 22.1,11.68 21.71,11.29Z" /></svg>
